X:7
T:Cluck Old Hen
S:Sarah Comer
M:C
L:1/4
N:The Cs with upwards slides indicate a kind of half-sharp, or slid up C.
G:Key: A Dorian
Z:abc-transcription Josh Larios <hades@elsewhere.org>, 2017.02.14
K:A Dor
[P:A]"A"ea "G"g2 | "A"ee "G"d2 | "A"e a "G"g g/a/ | "E"e/d/!slideoutup!c "A"A2 |
|"A"ea "G"g2 | "A"ee "G"d2 | "A"e>e e/d/ c/d/ | "E"e/d/!slideoutup!c "A"A2 ||
[P:B]|: "A"A A "C"!slideoutup!c2 | "A"A A "G"G2 | "A"A A cd | "E"e/d/ !slideoutup!c "A"A2 :|

